X:155
T:Sing, Sally O! (a)
M:2/4
L:1/16
Q:1/4=3D120
K:DDor
A|\
^F2A2 A2A2|^F2 A4 A2|G2F2 E2D2|C2D2 E2C2|D2A2 A2GF| E2F2 D3c|
 A2G2 A2B2|c2B2 c2A2|G2F2 E2D2|C2D2 E2C2|D2A2 A2GF| E2F2 D2 ||
